!!!SOCIAL_FUNCTION:	songs of social dance
!!!PDT:	1936
!!!OTL: No_58_Song_Addressed_to_Eagle_Nest.krn
!!!REG: Oklahoma and Montana
!!!LANG: Tone
!!!LING_GROUP: Algonquin
**kern
*staff1
=1-
*clefG2
*k[b-e-]
*M2/4
4.r
16b-\LL
16b-\JJ
=2
8.b-\L
16b-\Jk
(8b-\
32g/)
32r
16f/
=3
*M3/4
8.b-\L
16b-\Jk
8cc\L
16b-\L
16b-\JJ
(8b-\
32f/)
32r
16f/
=4
=
8.f/L
16f/Jk
8g/L
16f/L
16f/JJ
8f/
16r
16e-/
=5
8.f/L
16f/Jk
8g/L
16f/L
16f/JJ
8.f/L
16e-/Jk
=6
8.e-/L
16e-/Jk
8f/L
16e-/L
16e-/JJ
8d-/
16r
16B-/
=7
*M2/4
8.e-/L
16e-/Jk
8f/L
16e-/L
16e-/JJ
=8
8.d-/L
16B-/Jk
8B-/
8r
=9
16c/LL
16B-/
16B-/JJ
16r
16B-/LL
16B-/
16B-/JJ
16r
=10
16c/LL
16B-/
16B-/JJ
16r
16B-/LL
16B-/
16B-/JJ
16r
=11
4B-/
8.r
16e-/
=12:|!
=
8B-/
4.r
==
*-
